src/telerik-icons/solid/cells-merge-horizontally.svg

<?xml version="1.0" encoding="utf-8"?>
<svg xmlns="http://www.w3.org/2000/svg" width="512" height="512" viewBox="0 0 512 512">
  <path d="M32 32v416h416V32H32zm160 32h96v96h-96V64zM64 64h96v96H64V64zm96 352H64v-96h96v96zm128 0h-96v-96h96v96zm128 0h-96v-96h96v96zm0-128H64v-96h352v96zm0-128h-96V64h96v96z"/>
</svg>

<?xml version="1.0" encoding="utf-8"?>
<!-- Generator: Adobe Illustrator 19.2.1, SVG Export Plug-In . SVG Version: 6.00 Build 0)  -->
<svg xmlns="http://www.w3.org/2000/svg" width="512" height="512" viewBox="0 0 512 512">
<path d="M32,32v416h416V32H32z M192,64h96v96h-96V64z M64,64h96v96H64V64z M160,416H64v-96h96V416z M288,416h-96v-96h96V416z
	 M416,416h-96v-96h96V416z M416,288H64v-96h352V288z M416,160h-96V64h96V160z" />
</svg>
